Newaita-dark/actions/24/kt-stop-all.svg

<?xml version="1.0" encoding="UTF-8"?>
<svg xmlns="http://www.w3.org/2000/svg" xmlns:xlink="http://www.w3.org/1999/xlink" width="24pt" height="24pt" viewBox="0 0 24 24" version="1.1">
<g id="surface1">
<path style=" stroke:none;fill-rule:nonzero;fill:rgb(93.725491%,32.549021%,31.37255%);fill-opacity:1;" d="M 2.976562 7.132812 L 8.929688 7.132812 C 10.027344 7.132812 10.914062 8.023438 10.914062 9.117188 L 10.914062 15.070312 C 10.914062 16.167969 10.027344 17.054688 8.929688 17.054688 L 2.976562 17.054688 C 1.878906 17.054688 0.992188 16.167969 0.992188 15.070312 L 0.992188 9.117188 C 0.992188 8.023438 1.878906 7.132812 2.976562 7.132812 Z M 2.976562 7.132812 "/>
<path style=" stroke:none;fill-rule:nonzero;fill:rgb(93.725491%,32.549021%,31.37255%);fill-opacity:1;" d="M 14.882812 7.132812 L 20.839844 7.132812 C 21.933594 7.132812 22.824219 8.023438 22.824219 9.117188 L 22.824219 15.070312 C 22.824219 16.167969 21.933594 17.054688 20.839844 17.054688 L 14.882812 17.054688 C 13.789062 17.054688 12.898438 16.167969 12.898438 15.070312 L 12.898438 9.117188 C 12.898438 8.023438 13.789062 7.132812 14.882812 7.132812 Z M 14.882812 7.132812 "/>
</g>
</svg>

<svg xmlns="http://www.w3.org/2000/svg" width="32" height="32" viewBox="0 0 24 24"><g fill="#ef5350"><path d="M2.977 7.133H8.93c1.097 0 1.984.89 1.984 1.984v5.953a1.982 1.982 0 0 1-1.984 1.985H2.977A1.982 1.982 0 0 1 .992 15.07V9.117c0-1.094.887-1.984 1.985-1.984zm0 0M14.883 7.133h5.957c1.094 0 1.984.89 1.984 1.984v5.953c0 1.098-.89 1.985-1.984 1.985h-5.957a1.985 1.985 0 0 1-1.985-1.985V9.117c0-1.094.891-1.984 1.985-1.984zm0 0"/></g></svg>
